public/ox-hugo/AeXpjL.svg

<?xml version="1.0" encoding="UTF-8" standalone="no"?>
<svg
   width="209.763pt"
   height="174.866pt"
   viewBox="0 0 209.763 174.866"
   version="1.2"
   id="svg122"
   xmlns:xlink="http://www.w3.org/1999/xlink"
   xmlns="http://www.w3.org/2000/svg"
   xmlns:svg="http://www.w3.org/2000/svg">
  <defs
     id="defs37">
    <g
       id="g20">
      <symbol
         overflow="visible"
         id="glyph0-0">
        <path
           style="stroke:none;"
           d=""
           id="path2" />
      </symbol>
      <symbol
         overflow="visible"
         id="glyph0-1">
        <path
           style="stroke:none;"
           d="M 6.5625 -2.296875 C 6.734375 -2.296875 6.921875 -2.296875 6.921875 -2.5 C 6.921875 -2.6875 6.734375 -2.6875 6.5625 -2.6875 L 1.171875 -2.6875 C 1 -2.6875 0.828125 -2.6875 0.828125 -2.5 C 0.828125 -2.296875 1 -2.296875 1.171875 -2.296875 Z M 6.5625 -2.296875 "
           id="path5" />
      </symbol>
      <symbol
         overflow="visible"
         id="glyph1-0">
        <path
           style="stroke:none;"
           d=""
           id="path8" />
      </symbol>
      <symbol
         overflow="visible"
         id="glyph1-1">
        <path
           style="stroke:none;"
           d="M 2.9375 -6.375 C 2.9375 -6.625 2.9375 -6.640625 2.703125 -6.640625 C 2.078125 -6 1.203125 -6 0.890625 -6 L 0.890625 -5.6875 C 1.09375 -5.6875 1.671875 -5.6875 2.1875 -5.953125 L 2.1875 -0.78125 C 2.1875 -0.421875 2.15625 -0.3125 1.265625 -0.3125 L 0.953125 -0.3125 L 0.953125 0 C 1.296875 -0.03125 2.15625 -0.03125 2.5625 -0.03125 C 2.953125 -0.03125 3.828125 -0.03125 4.171875 0 L 4.171875 -0.3125 L 3.859375 -0.3125 C 2.953125 -0.3125 2.9375 -0.421875 2.9375 -0.78125 Z M 2.9375 -6.375 "
           id="path11" />
      </symbol>
      <symbol
         overflow="visible"
         id="glyph1-2">
        <path
           style="stroke:none;"
           d="M 1.265625 -0.765625 L 2.328125 -1.796875 C 3.875 -3.171875 4.46875 -3.703125 4.46875 -4.703125 C 4.46875 -5.84375 3.578125 -6.640625 2.359375 -6.640625 C 1.234375 -6.640625 0.5 -5.71875 0.5 -4.828125 C 0.5 -4.28125 1 -4.28125 1.03125 -4.28125 C 1.203125 -4.28125 1.546875 -4.390625 1.546875 -4.8125 C 1.546875 -5.0625 1.359375 -5.328125 1.015625 -5.328125 C 0.9375 -5.328125 0.921875 -5.328125 0.890625 -5.3125 C 1.109375 -5.96875 1.65625 -6.328125 2.234375 -6.328125 C 3.140625 -6.328125 3.5625 -5.515625 3.5625 -4.703125 C 3.5625 -3.90625 3.078125 -3.125 2.515625 -2.5 L 0.609375 -0.375 C 0.5 -0.265625 0.5 -0.234375 0.5 0 L 4.203125 0 L 4.46875 -1.734375 L 4.234375 -1.734375 C 4.171875 -1.4375 4.109375 -1 4 -0.84375 C 3.9375 -0.765625 3.28125 -0.765625 3.0625 -0.765625 Z M 1.265625 -0.765625 "
           id="path14" />
      </symbol>
      <symbol
         overflow="visible"
         id="glyph1-3">
        <path
           style="stroke:none;"
           d="M 2.890625 -3.515625 C 3.703125 -3.78125 4.28125 -4.46875 4.28125 -5.265625 C 4.28125 -6.078125 3.40625 -6.640625 2.453125 -6.640625 C 1.453125 -6.640625 0.6875 -6.046875 0.6875 -5.28125 C 0.6875 -4.953125 0.90625 -4.765625 1.203125 -4.765625 C 1.5 -4.765625 1.703125 -4.984375 1.703125 -5.28125 C 1.703125 -5.765625 1.234375 -5.765625 1.09375 -5.765625 C 1.390625 -6.265625 2.046875 -6.390625 2.40625 -6.390625 C 2.828125 -6.390625 3.375 -6.171875 3.375 -5.28125 C 3.375 -5.15625 3.34375 -4.578125 3.09375 -4.140625 C 2.796875 -3.65625 2.453125 -3.625 2.203125 -3.625 C 2.125 -3.609375 1.890625 -3.59375 1.8125 -3.59375 C 1.734375 -3.578125 1.671875 -3.5625 1.671875 -3.46875 C 1.671875 -3.359375 1.734375 -3.359375 1.90625 -3.359375 L 2.34375 -3.359375 C 3.15625 -3.359375 3.53125 -2.6875 3.53125 -1.703125 C 3.53125 -0.34375 2.84375 -0.0625 2.40625 -0.0625 C 1.96875 -0.0625 1.21875 -0.234375 0.875 -0.8125 C 1.21875 -0.765625 1.53125 -0.984375 1.53125 -1.359375 C 1.53125 -1.71875 1.265625 -1.921875 0.984375 -1.921875 C 0.734375 -1.921875 0.421875 -1.78125 0.421875 -1.34375 C 0.421875 -0.4375 1.34375 0.21875 2.4375 0.21875 C 3.65625 0.21875 4.5625 -0.6875 4.5625 -1.703125 C 4.5625 -2.515625 3.921875 -3.296875 2.890625 -3.515625 Z M 2.890625 -3.515625 "
           id="path17" />
      </symbol>
    </g>
    <clipPath
       id="clip1">
      <path
         d="M 145 39 L 166 39 L 166 167.921875 L 145 167.921875 Z M 145 39 "
         id="path22" />
    </clipPath>
    <clipPath
       id="clip2">
      <path
         d="M 58 38 L 156 38 L 156 167.921875 L 58 167.921875 Z M 58 38 "
         id="path25" />
    </clipPath>
    <clipPath
       id="clip3">
      <path
         d="M 46 27 L 167 27 L 167 167.921875 L 46 167.921875 Z M 46 27 "
         id="path28" />
    </clipPath>
    <clipPath
       id="clip4">
      <path
         d="M 145 38 L 166 38 L 166 167.921875 L 145 167.921875 Z M 145 38 "
         id="path31" />
    </clipPath>
    <clipPath
       id="clip5">
      <path
         d="M 134 27 L 177 27 L 177 167.921875 L 134 167.921875 Z M 134 27 "
         id="path34" />
    </clipPath>
  </defs>
  <g
     id="surface1">
    <path
       style="fill:none;stroke:#7f7f7f;stroke-width:0.19925;stroke-linecap:butt;stroke-linejoin:miter;stroke-miterlimit:10;stroke-opacity:1"
       d="m 0.0015,62.431719 v 4.25 m 97.132812,-4.25 v 4.25 m 48.566408,-4.25 v 4.25 m 48.57031,-4.25 v 4.25"
       transform="matrix(1,0,0,-1,9.686,167.92)"
       id="path39" />
    <path
       style="fill:none;stroke:#7f7f7f;stroke-width:0.19925;stroke-linecap:butt;stroke-linejoin:miter;stroke-miterlimit:10;stroke-opacity:1"
       d="m 46.442906,-0.001875 h 4.25 m -4.25,32.28125 h 4.25 m -4.25,64.554688 h 4.25 m -4.25,32.281247 h 4.25 m -4.25,32.27735 h 4.25"
       transform="matrix(1,0,0,-1,9.686,167.92)"
       id="path41" />
    <path
       style="fill:none;stroke:#000000;stroke-width:0.79701;stroke-linecap:butt;stroke-linejoin:miter;stroke-miterlimit:10;stroke-opacity:1"
       d="M 0.0015,64.556719 H 191.67728"
       transform="matrix(1,0,0,-1,9.686,167.92)"
       id="path43" />
    <path
       style="fill:#000000;fill-opacity:1;fill-rule:nonzero;stroke:none"
       d="m 203.95703,103.36328 -4.14453,-2.07031 1.55078,2.07031 -1.55078,2.07031"
       id="path45" />
    <path
       style="fill:none;stroke:#000000;stroke-width:0.79701;stroke-linecap:butt;stroke-linejoin:miter;stroke-miterlimit:10;stroke-opacity:1"
       d="M 48.567906,-0.001875 V 158.80281"
       transform="matrix(1,0,0,-1,9.686,167.92)"
       id="path47" />
    <path
       style="fill:#000000;fill-opacity:1;fill-rule:nonzero;stroke:none"
       d="m 58.253906,6.527344 -2.074218,4.144531 2.074218,-1.554687 2.070313,1.554687"
       id="path49" />
    <g
       style="fill:#000000;fill-opacity:1"
       id="g53">
      <use
         xlink:href="#glyph0-1"
         x="3.3210001"
         y="115.63"
         id="use51" />
    </g>
    <g
       style="fill:#000000;fill-opacity:1"
       id="g57">
      <use
         xlink:href="#glyph1-1"
         x="11.069"
         y="115.63"
         id="use55" />
    </g>
    <g
       style="fill:#000000;fill-opacity:1"
       id="g61">
      <use
         xlink:href="#glyph1-1"
         x="104.328"
         y="115.63"
         id="use59" />
    </g>
    <g
       style="fill:#000000;fill-opacity:1"
       id="g65">
      <use
         xlink:href="#glyph1-2"
         x="152.895"
         y="115.63"
         id="use63" />
    </g>
    <g
       style="fill:#000000;fill-opacity:1"
       id="g69">
      <use
         xlink:href="#glyph1-3"
         x="201.46201"
         y="115.63"
         id="use67" />
    </g>
    <g
       style="fill:#000000;fill-opacity:1"
       id="g73">
      <use
         xlink:href="#glyph0-1"
         x="39.676998"
         y="170.715"
         id="use71" />
    </g>
    <g
       style="fill:#000000;fill-opacity:1"
       id="g77">
      <use
         xlink:href="#glyph1-2"
         x="47.425999"
         y="170.715"
         id="use75" />
    </g>
    <g
       style="fill:#000000;fill-opacity:1"
       id="g81">
      <use
         xlink:href="#glyph0-1"
         x="39.676998"
         y="138.437"
         id="use79" />
    </g>
    <g
       style="fill:#000000;fill-opacity:1"
       id="g85">
      <use
         xlink:href="#glyph1-1"
         x="47.425999"
         y="138.437"
         id="use83" />
    </g>
    <g
       style="fill:#000000;fill-opacity:1"
       id="g89">
      <use
         xlink:href="#glyph1-1"
         x="47.425999"
         y="74.295998"
         id="use87" />
    </g>
    <g
       style="fill:#000000;fill-opacity:1"
       id="g93">
      <use
         xlink:href="#glyph1-2"
         x="47.425999"
         y="42.019001"
         id="use91" />
    </g>
    <g
       style="fill:#000000;fill-opacity:1"
       id="g97">
      <use
         xlink:href="#glyph1-3"
         x="47.425999"
         y="9.7410002"
         id="use95" />
    </g>
    <g
       clip-path="url(#clip1)"
       clip-rule="nonzero"
       id="g101">
      <path
         style="fill:#f0f0f0;fill-opacity:1;fill-rule:nonzero;stroke:none"
         d="m 165.35156,103.36328 c 0,-35.214842 -4.46094,-63.761718 -9.96484,-63.761718 -5.5,0 -9.96094,28.546876 -9.96094,63.761718 0,35.21484 4.46094,63.76172 9.96094,63.76172 5.5039,0 9.96484,-28.54688 9.96484,-63.76172 z m 0,0"
         id="path99" />
    </g>
    <g
       clip-path="url(#clip2)"
       clip-rule="nonzero"
       id="g105">
      <path
         style="fill:#e3e3ff;fill-opacity:1;fill-rule:nonzero;stroke:none"
         d="M 58.253906,103.36328 155.38672,38.804688 V 167.92187 Z m 0,0"
         id="path103" />
    </g>
    <g
       clip-path="url(#clip3)"
       clip-rule="nonzero"
       id="g109">
      <path
         style="fill:none;stroke:#ff0000;stroke-width:0.79701;stroke-linecap:butt;stroke-linejoin:miter;stroke-miterlimit:10;stroke-opacity:1"
         d="M 48.567906,64.556719 145.70072,129.11531 V -0.001875 Z m 0,0"
         transform="matrix(1,0,0,-1,9.686,167.92)"
         id="path107" />
    </g>
    <g
       clip-path="url(#clip4)"
       clip-rule="nonzero"
       id="g113">
      <path
         style="fill:#f0f0f0;fill-opacity:1;fill-rule:nonzero;stroke:none"
         d="m 165.35156,103.36328 c 0,-35.765624 -4.46094,-64.757811 -9.96484,-64.757811 -5.5,0 -9.96094,28.992187 -9.96094,64.757811 0,35.76563 4.46094,64.75781 9.96094,64.75781 5.5039,0 9.96484,-28.99218 9.96484,-64.75781 z m 0,0"
         id="path111" />
    </g>
    <g
       clip-path="url(#clip5)"
       clip-rule="nonzero"
       id="g117">
      <path
         style="fill:none;stroke:#ff0000;stroke-width:0.79701;stroke-linecap:butt;stroke-linejoin:miter;stroke-miterlimit:10;stroke-opacity:1"
         d="m 155.66556,64.556719 c 0,35.765621 -4.46094,64.757811 -9.96484,64.757811 -5.5,0 -9.96094,-28.99219 -9.96094,-64.757811 0,-35.765625 4.46094,-64.757813 9.96094,-64.757813 5.5039,0 9.96484,28.992188 9.96484,64.757813 z m 0,0"
         transform="matrix(1,0,0,-1,9.686,167.92)"
         id="path115" />
    </g>
    <path
       style="fill:none;stroke:#000000;stroke-width:0.79701;stroke-linecap:butt;stroke-linejoin:miter;stroke-miterlimit:10;stroke-opacity:1"
       d="m 135.98978,64.556719 h 29.14063"
       transform="matrix(1,0,0,-1,9.686,167.92)"
       id="path119" />
  </g>
</svg>

<?xml version="1.0" encoding="UTF-8" standalone="no"?>
<svg
   width="209.763pt"
   height="174.866pt"
   viewBox="0 0 209.763 174.866"
   version="1.1"
   id="svg117"
   xmlns:xlink="http://www.w3.org/1999/xlink"
   xmlns="http://www.w3.org/2000/svg"
   xmlns:svg="http://www.w3.org/2000/svg">
  <defs
     id="defs33">
    <g
       id="g16">
      <g
         id="glyph-0-0" />
      <g
         id="glyph-0-1">
        <path
           d="M 6.5625 -2.296875 C 6.734375 -2.296875 6.921875 -2.296875 6.921875 -2.5 C 6.921875 -2.6875 6.734375 -2.6875 6.5625 -2.6875 L 1.171875 -2.6875 C 1 -2.6875 0.828125 -2.6875 0.828125 -2.5 C 0.828125 -2.296875 1 -2.296875 1.171875 -2.296875 Z M 6.5625 -2.296875 "
           id="path3" />
      </g>
      <g
         id="glyph-1-0" />
      <g
         id="glyph-1-1">
        <path
           d="M 2.9375 -6.375 C 2.9375 -6.625 2.9375 -6.640625 2.703125 -6.640625 C 2.078125 -6 1.203125 -6 0.890625 -6 L 0.890625 -5.6875 C 1.09375 -5.6875 1.671875 -5.6875 2.1875 -5.953125 L 2.1875 -0.78125 C 2.1875 -0.421875 2.15625 -0.3125 1.265625 -0.3125 L 0.953125 -0.3125 L 0.953125 0 C 1.296875 -0.03125 2.15625 -0.03125 2.5625 -0.03125 C 2.953125 -0.03125 3.828125 -0.03125 4.171875 0 L 4.171875 -0.3125 L 3.859375 -0.3125 C 2.953125 -0.3125 2.9375 -0.421875 2.9375 -0.78125 Z M 2.9375 -6.375 "
           id="path7" />
      </g>
      <g
         id="glyph-1-2">
        <path
           d="M 1.265625 -0.765625 L 2.328125 -1.796875 C 3.875 -3.171875 4.46875 -3.703125 4.46875 -4.703125 C 4.46875 -5.84375 3.578125 -6.640625 2.359375 -6.640625 C 1.234375 -6.640625 0.5 -5.71875 0.5 -4.828125 C 0.5 -4.28125 1 -4.28125 1.03125 -4.28125 C 1.203125 -4.28125 1.546875 -4.390625 1.546875 -4.8125 C 1.546875 -5.0625 1.359375 -5.328125 1.015625 -5.328125 C 0.9375 -5.328125 0.921875 -5.328125 0.890625 -5.3125 C 1.109375 -5.96875 1.65625 -6.328125 2.234375 -6.328125 C 3.140625 -6.328125 3.5625 -5.515625 3.5625 -4.703125 C 3.5625 -3.90625 3.078125 -3.125 2.515625 -2.5 L 0.609375 -0.375 C 0.5 -0.265625 0.5 -0.234375 0.5 0 L 4.203125 0 L 4.46875 -1.734375 L 4.234375 -1.734375 C 4.171875 -1.4375 4.109375 -1 4 -0.84375 C 3.9375 -0.765625 3.28125 -0.765625 3.0625 -0.765625 Z M 1.265625 -0.765625 "
           id="path10" />
      </g>
      <g
         id="glyph-1-3">
        <path
           d="M 2.890625 -3.515625 C 3.703125 -3.78125 4.28125 -4.46875 4.28125 -5.265625 C 4.28125 -6.078125 3.40625 -6.640625 2.453125 -6.640625 C 1.453125 -6.640625 0.6875 -6.046875 0.6875 -5.28125 C 0.6875 -4.953125 0.90625 -4.765625 1.203125 -4.765625 C 1.5 -4.765625 1.703125 -4.984375 1.703125 -5.28125 C 1.703125 -5.765625 1.234375 -5.765625 1.09375 -5.765625 C 1.390625 -6.265625 2.046875 -6.390625 2.40625 -6.390625 C 2.828125 -6.390625 3.375 -6.171875 3.375 -5.28125 C 3.375 -5.15625 3.34375 -4.578125 3.09375 -4.140625 C 2.796875 -3.65625 2.453125 -3.625 2.203125 -3.625 C 2.125 -3.609375 1.890625 -3.59375 1.8125 -3.59375 C 1.734375 -3.578125 1.671875 -3.5625 1.671875 -3.46875 C 1.671875 -3.359375 1.734375 -3.359375 1.90625 -3.359375 L 2.34375 -3.359375 C 3.15625 -3.359375 3.53125 -2.6875 3.53125 -1.703125 C 3.53125 -0.34375 2.84375 -0.0625 2.40625 -0.0625 C 1.96875 -0.0625 1.21875 -0.234375 0.875 -0.8125 C 1.21875 -0.765625 1.53125 -0.984375 1.53125 -1.359375 C 1.53125 -1.71875 1.265625 -1.921875 0.984375 -1.921875 C 0.734375 -1.921875 0.421875 -1.78125 0.421875 -1.34375 C 0.421875 -0.4375 1.34375 0.21875 2.4375 0.21875 C 3.65625 0.21875 4.5625 -0.6875 4.5625 -1.703125 C 4.5625 -2.515625 3.921875 -3.296875 2.890625 -3.515625 Z M 2.890625 -3.515625 "
           id="path13" />
      </g>
    </g>
    <clipPath
       id="clip-0">
      <path
         clip-rule="nonzero"
         d="M 145 39 L 166 39 L 166 167.921875 L 145 167.921875 Z M 145 39 "
         id="path18" />
    </clipPath>
    <clipPath
       id="clip-1">
      <path
         clip-rule="nonzero"
         d="M 58 38 L 156 38 L 156 167.921875 L 58 167.921875 Z M 58 38 "
         id="path21" />
    </clipPath>
    <clipPath
       id="clip-2">
      <path
         clip-rule="nonzero"
         d="M 46 27 L 167 27 L 167 167.921875 L 46 167.921875 Z M 46 27 "
         id="path24" />
    </clipPath>
    <clipPath
       id="clip-3">
      <path
         clip-rule="nonzero"
         d="M 145 38 L 166 38 L 166 167.921875 L 145 167.921875 Z M 145 38 "
         id="path27" />
    </clipPath>
    <clipPath
       id="clip-4">
      <path
         clip-rule="nonzero"
         d="M 134 27 L 177 27 L 177 167.921875 L 134 167.921875 Z M 134 27 "
         id="path30" />
    </clipPath>
  </defs>
  <path
     fill="none"
     stroke-width="0.19925"
     stroke-linecap="butt"
     stroke-linejoin="miter"
     stroke="rgb(50%, 50%, 50%)"
     stroke-opacity="1"
     stroke-miterlimit="10"
     d="M 0.0015 62.431719 L 0.0015 66.681719 M 97.134312 62.431719 L 97.134312 66.681719 M 145.700719 62.431719 L 145.700719 66.681719 M 194.271031 62.431719 L 194.271031 66.681719 "
     transform="matrix(1, 0, 0, -1, 9.686, 167.92)"
     id="path35" />
  <path
     fill="none"
     stroke-width="0.19925"
     stroke-linecap="butt"
     stroke-linejoin="miter"
     stroke="rgb(50%, 50%, 50%)"
     stroke-opacity="1"
     stroke-miterlimit="10"
     d="M 46.442906 -0.001875 L 50.692906 -0.001875 M 46.442906 32.279375 L 50.692906 32.279375 M 46.442906 96.834063 L 50.692906 96.834063 M 46.442906 129.115313 L 50.692906 129.115313 M 46.442906 161.392656 L 50.692906 161.392656 "
     transform="matrix(1, 0, 0, -1, 9.686, 167.92)"
     id="path37" />
  <path
     fill="none"
     stroke-width="0.79701"
     stroke-linecap="butt"
     stroke-linejoin="miter"
     stroke="rgb(0%, 0%, 0%)"
     stroke-opacity="1"
     stroke-miterlimit="10"
     d="M 0.0015 64.556719 L 191.677281 64.556719 "
     transform="matrix(1, 0, 0, -1, 9.686, 167.92)"
     id="path39" />
  <path
     fill-rule="nonzero"
     fill="rgb(0%, 0%, 0%)"
     fill-opacity="1"
     d="M 203.957031 103.363281 L 199.8125 101.292969 L 201.363281 103.363281 L 199.8125 105.433594 "
     id="path41" />
  <path
     fill="none"
     stroke-width="0.79701"
     stroke-linecap="butt"
     stroke-linejoin="miter"
     stroke="rgb(0%, 0%, 0%)"
     stroke-opacity="1"
     stroke-miterlimit="10"
     d="M 48.567906 -0.001875 L 48.567906 158.802813 "
     transform="matrix(1, 0, 0, -1, 9.686, 167.92)"
     id="path43" />
  <path
     fill-rule="nonzero"
     fill="rgb(0%, 0%, 0%)"
     fill-opacity="1"
     d="M 58.253906 6.527344 L 56.179688 10.671875 L 58.253906 9.117188 L 60.324219 10.671875 "
     id="path45" />
  <g
     fill="#000000"
     fill-opacity="1"
     id="g49">
    <use
       xlink:href="#glyph-0-1"
       x="3.3210001"
       y="115.63"
       id="use47" />
  </g>
  <g
     fill="#000000"
     fill-opacity="1"
     id="g53">
    <use
       xlink:href="#glyph-1-1"
       x="11.069"
       y="115.63"
       id="use51" />
  </g>
  <g
     fill="#000000"
     fill-opacity="1"
     id="g57">
    <use
       xlink:href="#glyph-1-1"
       x="104.328"
       y="115.63"
       id="use55" />
  </g>
  <g
     fill="#000000"
     fill-opacity="1"
     id="g61">
    <use
       xlink:href="#glyph-1-2"
       x="152.895"
       y="115.63"
       id="use59" />
  </g>
  <g
     fill="#000000"
     fill-opacity="1"
     id="g65">
    <use
       xlink:href="#glyph-1-3"
       x="201.46201"
       y="115.63"
       id="use63" />
  </g>
  <g
     fill="#000000"
     fill-opacity="1"
     id="g69">
    <use
       xlink:href="#glyph-0-1"
       x="39.676998"
       y="170.715"
       id="use67" />
  </g>
  <g
     fill="#000000"
     fill-opacity="1"
     id="g73">
    <use
       xlink:href="#glyph-1-2"
       x="47.425999"
       y="170.715"
       id="use71" />
  </g>
  <g
     fill="#000000"
     fill-opacity="1"
     id="g77">
    <use
       xlink:href="#glyph-0-1"
       x="39.676998"
       y="138.437"
       id="use75" />
  </g>
  <g
     fill="#000000"
     fill-opacity="1"
     id="g81">
    <use
       xlink:href="#glyph-1-1"
       x="47.425999"
       y="138.437"
       id="use79" />
  </g>
  <g
     fill="#000000"
     fill-opacity="1"
     id="g85">
    <use
       xlink:href="#glyph-1-1"
       x="47.425999"
       y="74.295998"
       id="use83" />
  </g>
  <g
     fill="#000000"
     fill-opacity="1"
     id="g89">
    <use
       xlink:href="#glyph-1-2"
       x="47.425999"
       y="42.019001"
       id="use87" />
  </g>
  <g
     fill="#000000"
     fill-opacity="1"
     id="g93">
    <use
       xlink:href="#glyph-1-3"
       x="47.425999"
       y="9.7410002"
       id="use91" />
  </g>
  <g
     clip-path="url(#clip-0)"
     id="g97">
    <path
       fill-rule="nonzero"
       fill="#f3f3f3"
       fill-opacity="1"
       d="m 165.35156,103.36328 c 0,-35.214842 -4.46094,-63.761718 -9.96484,-63.761718 -5.5,0 -9.96094,28.546876 -9.96094,63.761718 0,35.21484 4.46094,63.76172 9.96094,63.76172 5.5039,0 9.96484,-28.54688 9.96484,-63.76172 z m 0,0"
       id="path95" />
  </g>
  <g
     clip-path="url(#clip-1)"
     id="g101">
    <path
       fill-rule="nonzero"
       fill="#e6e6ff"
       fill-opacity="1"
       d="M 58.253906,103.36328 155.38672,38.804688 V 167.92187 Z m 0,0"
       id="path99" />
  </g>
  <g
     clip-path="url(#clip-2)"
     id="g105">
    <path
       fill="none"
       stroke-width="0.79701"
       stroke-linecap="butt"
       stroke-linejoin="miter"
       stroke="#ff0000"
       stroke-opacity="1"
       stroke-miterlimit="10"
       d="M 48.567906,64.556719 145.70072,129.11531 V -0.001875 Z m 0,0"
       transform="matrix(1,0,0,-1,9.686,167.92)"
       id="path103" />
  </g>
  <g
     clip-path="url(#clip-3)"
     id="g109">
    <path
       fill-rule="nonzero"
       fill="#f3f3f3"
       fill-opacity="1"
       d="m 165.35156,103.36328 c 0,-35.765624 -4.46094,-64.757811 -9.96484,-64.757811 -5.5,0 -9.96094,28.992187 -9.96094,64.757811 0,35.76563 4.46094,64.75781 9.96094,64.75781 5.5039,0 9.96484,-28.99218 9.96484,-64.75781 z m 0,0"
       id="path107" />
  </g>
  <g
     clip-path="url(#clip-4)"
     id="g113">
    <path
       fill="none"
       stroke-width="0.79701"
       stroke-linecap="butt"
       stroke-linejoin="miter"
       stroke="#ff0000"
       stroke-opacity="1"
       stroke-miterlimit="10"
       d="m 155.66556,64.556719 c 0,35.765621 -4.46094,64.757811 -9.96484,64.757811 -5.5,0 -9.96094,-28.99219 -9.96094,-64.757811 0,-35.765625 4.46094,-64.757813 9.96094,-64.757813 5.5039,0 9.96484,28.992188 9.96484,64.757813 z m 0,0"
       transform="matrix(1,0,0,-1,9.686,167.92)"
       id="path111" />
  </g>
  <path
     fill="none"
     stroke-width="0.79701"
     stroke-linecap="butt"
     stroke-linejoin="miter"
     stroke="rgb(0%, 0%, 0%)"
     stroke-opacity="1"
     stroke-miterlimit="10"
     d="M 135.989781 64.556719 L 165.130406 64.556719 "
     transform="matrix(1, 0, 0, -1, 9.686, 167.92)"
     id="path115" />
</svg>
